dist/img/svg/icon-title-bag.svg

<svg width="16" height="16" viewBox="0 0 16 16" fill="none" xmlns="http://www.w3.org/2000/svg">
<path d="M8.00047 8.88761C5.49396 8.88761 2.98842 8.88761 0.48191 8.88761C0.0172796 8.88761 0.0047999 8.87704 0.00383992 8.39796C0.000959979 6.71875 0 5.0405 0 3.3613C0 2.88221 0.0191996 2.86493 0.513589 2.86493C1.62908 2.86493 2.74362 2.85821 3.85912 2.87165C4.15287 2.87549 4.26615 2.78236 4.25943 2.48185C4.24311 1.79826 4.25943 1.11468 4.24887 0.431088C4.24311 0.130578 4.35351 -0.000954879 4.66742 5.21618e-06C6.89745 0.00864607 9.12844 0.00960617 11.3585 0.00480569C11.6647 0.0038456 11.7492 0.14594 11.7453 0.425327C11.7348 1.10892 11.7511 1.7925 11.7357 2.47609C11.729 2.7718 11.8337 2.87453 12.1313 2.87069C13.2708 2.85821 14.4093 2.87837 15.5488 2.86109C15.9011 2.85533 16.0019 2.98206 16 3.32097C15.9865 5.0117 15.9933 6.70243 15.9913 8.39412C15.9904 8.88665 15.9865 8.88857 15.4825 8.88857C12.9895 8.88761 10.4945 8.88761 8.00047 8.88761ZM7.99471 4.63823C6.06515 4.63823 4.13463 4.64302 2.20507 4.63342C1.90844 4.6315 1.79996 4.72751 1.80956 5.0261C1.82684 5.58872 1.82972 6.15325 1.8086 6.71587C1.79612 7.04134 1.92668 7.13255 2.23099 7.12103C2.69754 7.10279 3.16601 7.11623 3.63352 7.11623C7.01361 7.11623 10.3947 7.11335 13.7747 7.12199C14.0896 7.12295 14.2 7.02694 14.1875 6.71107C14.1664 6.17246 14.1587 5.63096 14.1866 5.09331C14.2058 4.72079 14.0704 4.62862 13.7133 4.6315C11.8068 4.64687 9.90027 4.63823 7.99471 4.63823ZM7.96111 2.86493V2.86685C8.51118 2.86685 9.0622 2.86013 9.61227 2.86973C9.84363 2.87357 9.94635 2.78524 9.93003 2.55386C9.92331 2.45881 9.91947 2.36184 9.93003 2.26679C9.96747 1.93076 9.83979 1.8021 9.48652 1.81074C8.57742 1.83187 7.66736 1.81843 6.75825 1.81747C6.02387 1.81747 6.03155 1.81651 6.05939 2.55098C6.06803 2.78044 6.14963 2.87165 6.38002 2.86781C6.90801 2.85917 7.43504 2.86493 7.96111 2.86493Z" fill="black"/>
<path d="M7.97646 15.999C5.48243 15.999 2.98841 15.999 0.494381 15.999C0.0403109 15.999 0.0047916 15.9674 0.00383162 15.5075C0.000951686 13.8167 -8.29308e-06 12.126 0.000951686 10.4353C0.000951686 9.95141 0.0201513 9.93605 0.512621 9.93317C0.812134 9.93125 1.11261 9.94949 1.41212 9.93221C1.73371 9.91397 1.82395 10.057 1.82107 10.3604C1.80859 11.4876 1.82683 12.6147 1.80859 13.7419C1.80283 14.0933 1.92571 14.1912 2.26458 14.1902C6.11314 14.1816 9.96266 14.1825 13.8112 14.1893C14.0944 14.1893 14.1875 14.0894 14.1856 13.811C14.176 12.6723 14.1914 11.5327 14.1779 10.3931C14.1741 10.057 14.2749 9.90725 14.6282 9.93125C14.9747 9.95429 15.3232 9.94277 15.6707 9.93605C15.9011 9.93125 15.9961 10.0397 15.9961 10.2615C15.9932 12.0598 15.9904 13.859 15.9942 15.6572C15.9952 15.9981 15.7734 15.9981 15.5325 15.9981C13.7459 15.9971 11.9594 15.999 10.1729 16C9.43851 16 8.70796 15.999 7.97646 15.999Z" fill="black"/>
</svg>

<svg width="16" height="16" viewBox="0 0 16 16" fill="none" xmlns="http://www.w3.org/2000/svg"><path d="M8 8.888H.482c-.465 0-.477-.011-.478-.49C0 6.718 0 5.041 0 3.361c0-.479.02-.496.514-.496 1.115 0 2.23-.007 3.345.007.294.003.407-.09.4-.39-.016-.684 0-1.367-.01-2.05-.006-.301.105-.433.418-.432 2.23.009 4.461.01 6.691.005.307-.001.391.14.387.42-.01.684.006 1.367-.01 2.051-.006.296.099.399.396.395 1.14-.013 2.278.007 3.418-.01.352-.006.453.121.451.46-.014 1.69-.007 3.381-.009 5.073 0 .493-.005.495-.508.495L8 8.888zm-.005-4.25c-1.93 0-3.86.005-5.79-.005-.297-.002-.405.095-.395.393.017.563.02 1.127-.001 1.69-.013.325.118.417.422.405.467-.018.935-.005 1.403-.005 3.38 0 6.76-.003 10.14.006.316.001.426-.095.414-.41a17.813 17.813 0 01-.001-1.619c.019-.372-.117-.464-.474-.462-1.906.016-3.813.007-5.718.007zM7.96 2.865v.002c.55 0 1.101-.007 1.651.003.232.004.334-.085.318-.316a1.593 1.593 0 010-.287c.037-.336-.09-.465-.443-.456-.91.02-1.82.007-2.729.006-.734 0-.726 0-.699.734.009.23.09.32.321.317.528-.009 1.055-.003 1.581-.003zm.016 13.134H.494c-.454 0-.49-.032-.49-.492C0 13.818 0 12.127 0 10.436c0-.484.02-.499.512-.502.3-.002.6.016.9 0 .32-.019.41.124.408.427-.012 1.128.006 2.255-.012 3.382-.006.351.117.45.456.448 3.848-.008 7.698-.008 11.546 0 .283 0 .377-.1.375-.379-.01-1.139.005-2.278-.008-3.418-.004-.336.097-.486.45-.462.347.023.695.012 1.043.005.23-.005.325.104.325.325a1386.59 1386.59 0 00-.002 5.396c.001.341-.22.341-.461.341l-5.36.002L7.975 16z" fill="#000"/></svg>
